X:322
T:Waterloo. RH.322
R:reel
S:Rev.R.Harrison’s MS,c1815,Cumbria
O:England
A:Temple Sowerby,Cumbria
Z:vmp.Simon Wilson. Review PJH, 2008.
M:C|
L:1/8
Q:1/2=80
K:G
f|gG G/G/G BGBd|gdBG FAAc|BG G/G/G BGBd|cAGF G2G:|!
g|dgge fgac’|bgag fgab|dgge fgac’|bgaf g3d|!
dgge fgac’|bgag fgac’|bgdg egdB|cAdF G2G|]

